X:68
T:Lord Ingram - a slight variation of the above
T:2d. part to the above
Z:Jack Campin - http://www.campin.me.uk
S:Blaikie MS (NLS MS.1578) p21, Blaikie #63
M:C
L:1/4
V:1 midi program 1 74
V:2 midi program 1 46 bass middle = d transpose -24
Q:1/4=100
K:C
[V:1] EG  Ac |EG    c2   |EG  Ac |G/A/G/E/ DC |
[V:2] cc' cc'|cc'   cc'  |cc' cc'|cc'      gc |
%
[V:1] CC  c>d|ed/c/ AG/A/|c2  G2 |AG/E/    DC|]
[V:2] ee  cg |cc'   cc'  |c'2 g2 |cc'      gc|]
W:Transcription (c) Jack Campin 2009, no mirroring or republication without permission

